svg/streaming.svg

<svg width="284" height="284" viewBox="0 0 284 284" fill="none" xmlns="http://www.w3.org/2000/svg">
<path fill-rule="evenodd" clip-rule="evenodd" d="M92.3596 220.857C71.7946 207.906 57.3266 187.766 51.6226 164.146C45.9306 140.574 49.5726 116.108 61.8796 95.2539C62.6036 94.0269 63.9376 93.3219 65.3506 93.2869C66.7746 93.2969 68.0876 94.0619 68.7956 95.2999L91.0666 134.19C92.1636 136.107 91.4996 138.551 89.5826 139.648C87.6646 140.748 85.2216 140.083 84.1236 138.165L65.4376 105.534C56.9106 123.14 54.7536 143.029 59.3996 162.268C64.6116 183.85 77.8306 202.254 96.6226 214.088C115.783 226.153 138.493 230.035 160.574 225.021C182.654 220.006 201.459 206.692 213.525 187.532C238.432 147.981 226.518 95.5409 186.968 70.6329C145.471 44.4979 107.062 62.2309 95.7636 71.2699C94.0396 72.6519 91.5226 72.3719 90.1416 70.6459C88.7616 68.9219 89.0406 66.4039 90.7656 65.0239C103.301 54.9949 145.781 35.2399 191.231 63.8629C234.514 91.1219 247.552 148.513 220.294 191.796C207.09 212.764 186.51 227.334 162.346 232.823C155.459 234.388 148.512 235.16 141.618 235.161C124.326 235.161 107.351 230.298 92.3596 220.857Z" fill="#1A1919"/>
</svg>

<svg width="284" height="284" viewBox="0 0 284 284" xmlns="http://www.w3.org/2000/svg">
    <path d="M92.36 220.857c-20.565-12.951-35.033-33.091-40.737-56.711-5.692-23.572-2.05-48.038 10.257-68.892.724-1.227 2.058-1.932 3.47-1.967a4 4 0 0 1 3.446 2.013l22.27 38.89a4 4 0 0 1-6.942 3.975l-18.686-32.631c-8.527 17.606-10.684 37.495-6.038 56.734 5.212 21.582 18.43 39.986 37.223 51.82 19.16 12.065 41.87 15.947 63.95 10.933 22.08-5.015 40.886-18.33 52.952-37.49 24.907-39.55 12.993-91.99-26.557-116.898-41.497-26.135-79.906-8.402-91.204.637a4 4 0 0 1-4.998-6.246C103.3 54.994 145.78 35.24 191.23 63.863c43.283 27.259 56.32 84.65 29.063 127.933-13.204 20.968-33.784 35.538-57.948 41.027a93.565 93.565 0 0 1-20.728 2.338c-17.292 0-34.267-4.863-49.258-14.304z" fill="#1A1918" fill-rule="evenodd"/>
</svg>
